project/porshe/images/return/icon-button.svg

<svg width="26" height="24" viewBox="0 0 26 24" fill="none" xmlns="http://www.w3.org/2000/svg">
<path fill-rule="evenodd" clip-rule="evenodd" d="M0 23.3938H26V16.2457H22.4545V20.1447H3.54545V16.2457H0V23.3938ZM5.3173 7.14812L12.9991 16.2457L20.6809 7.14812H15.3628V0H10.6355V7.14812H5.3173Z" fill="white"/>
</svg>

<svg width="26" height="24" fill="none" xmlns="http://www.w3.org/2000/svg"><path fill-rule="evenodd" clip-rule="evenodd" d="M0 23.394h26v-7.148h-3.546v3.899H3.546v-3.9H0v7.149zM5.317 7.148L13 16.246l7.682-9.098h-5.318V0h-4.727v7.148h-5.32z" fill="#fff"/></svg>
